packages/icons/src/svg/sharing-owner.svg

<svg xmlns="http://www.w3.org/2000/svg" viewBox="0 0 16 16">
  <g class="tsharing-owner-icon-color" fill="#000">
    <path d="M14.356504,10.589 C13.257504,9.38 11.386504,9.29 10.177504,10.388 L6.07350397,8.266 C6.07950397,8.184 6.09750397,8.108 6.09750397,8.024 C6.09750397,7.941 6.07950397,7.864 6.07350397,7.783 L9.18950397,6.171 C9.88950397,7.059 10.961504,7.64 12.180504,7.64 C14.290504,7.64 16.000504,5.93 16.000504,3.82 C16.000504,1.711 14.290504,0 12.180504,0 C10.070504,0 8.36050397,1.711 8.36050397,3.82 C8.36050397,3.867 8.37250397,3.911 8.37450397,3.957 L5.05650397,5.672 C3.91850397,4.616 2.15950397,4.616 1.02250397,5.672 C-0.234496035,6.846 -0.347496035,8.8 0.766503965,10.11 C0.796503965,10.147 0.828503965,10.183 0.860503965,10.218 C1.97550397,11.42 3.85450397,11.491 5.05650397,10.376 L9.16150397,12.5 C9.15450397,12.58 9.13650397,12.657 9.13650397,12.74 C9.13250397,13.495 9.39550397,14.228 9.87950397,14.807 C9.91050397,14.844 9.94050397,14.88 9.97250397,14.915 C11.071504,16.124 12.941504,16.214 14.151504,15.115 C15.414504,13.958 15.545504,12.013 14.449504,10.696 C14.418504,10.66 14.388504,10.624 14.356504,10.589"/>
  </g>  
  <g class="tsharing-owner-chip-brand-primary" fill="#5DA288">
    <path d="M15.235904,3.82 C15.235904,5.508 13.867904,6.876 12.179904,6.876 C10.491904,6.876 9.12390397,5.508 9.12390397,3.82 C9.12390397,2.133 10.491904,0.764 12.179904,0.764 C13.867904,0.764 15.235904,2.133 15.235904,3.82"/>
  </g>
</svg>

<svg xmlns="http://www.w3.org/2000/svg" viewBox="0 0 16 16">
	<path d="M14.357 10.589a2.96 2.96 0 0 0-4.18-.201L6.075 8.266c.006-.082.024-.158.024-.242 0-.083-.018-.16-.024-.241L9.19 6.171a3.8 3.8 0 0 0 2.99 1.469 3.82 3.82 0 1 0-3.82-3.82c0 .047.013.091.015.137L5.057 5.672a2.964 2.964 0 0 0-4.034 0 3.219 3.219 0 0 0-.162 4.546 2.97 2.97 0 0 0 4.196.158L9.162 12.5c-.007.08-.025.157-.025.24a3.197 3.197 0 0 0 .743 2.067 2.958 2.958 0 0 0 4.272.308 3.209 3.209 0 0 0 .298-4.419c-.031-.036-.061-.072-.093-.107" class="tsharing-owner-icon-color"/>
	<path d="M15.236 3.82a3.056 3.056 0 1 1-6.112 0 3.056 3.056 0 0 1 6.112 0" class="tsharing-owner-chip-brand-primary" fill="#5DA288"/>
</svg>
